X:125
T:Fraher's Jig
R:jig
D:Paddy Glackin: In Full Spate
D:Willie Clancy
Z:id:hn-jig-125
M:6/8
K:Dmix
~A3 GED|F2A GED|~A3 GEA|~D3 DEG|~A3 GED|FED GED|~A3 GEA|~D3 DEG:|
ABA d2A|d2A AGE|GAB c2A|BGE EDD|Add def|dcA AGE|AcA GEA|~D3 DEG:|

